X: 1
T:Gan Ainm
M:C|
L:1/8
R:reel
K:G
d2BG DGBc|d2Bd d~g3|d2BG DGBG|AGAB c2Bc|\
d2BG DGBc|d2Bd d~g3|d2BG DGBG|AGAB c2Bc||
d~g3 de=f2|dggd c2Bc|d~g3 de=f2|dcAB c2Bc|\
d~g3 de=f2|dggd c2Bc|d~g3 bgag|dcAB c2Bc||
